img/header/logo.svg

<svg width="149" height="33" viewBox="0 0 149 33" fill="none" xmlns="http://www.w3.org/2000/svg">
<path fill-rule="evenodd" clip-rule="evenodd" d="M35.6636 24.1399C35.6977 24.2474 35.7318 24.3191 35.8 24.3549C35.8341 24.3907 35.8682 24.4266 35.9022 24.4266C35.9363 24.4266 35.9704 24.3907 36.0045 24.3549C36.0386 24.3191 36.1068 24.2474 36.1408 24.1399L39.1063 15.0754H43.5034L39.1063 26.4329C39.0041 26.7196 38.8677 27.0062 38.6973 27.257C38.5269 27.5078 38.3224 27.7586 38.0838 27.9377C37.8451 28.1527 37.5384 28.296 37.1975 28.4035C36.8566 28.511 36.4135 28.5826 35.9022 28.5826C35.3909 28.5826 34.9478 28.511 34.607 28.4035C34.2661 28.296 33.9593 28.1168 33.7207 27.9377C33.4821 27.7586 33.2776 27.5078 33.1072 27.257C32.9367 27.0062 32.8004 26.7196 32.6981 26.4329L28.301 15.0754H32.6981L35.6636 24.1399ZM43.8784 28.4393V15.0754H47.9687V28.4393H43.8784ZM56.8311 21.2379C57.0697 21.2379 57.3424 21.2379 57.581 21.202C57.8196 21.1662 58.0241 21.0946 58.1946 20.8796C58.3991 20.6288 58.5354 20.2347 58.5354 19.7331C58.5354 19.5539 58.5014 19.3748 58.4673 19.1957C58.4332 19.0165 58.3309 18.8374 58.1605 18.6941C57.9901 18.5508 57.7855 18.4433 57.581 18.4433C57.3424 18.4074 57.1379 18.4074 56.8993 18.4074H54.6155C54.4451 18.4074 54.3088 18.4433 54.2406 18.4791C54.1383 18.5508 54.0702 18.5866 54.0361 18.6941C54.002 18.7657 53.9679 18.8374 53.9338 18.9449C53.9338 19.0165 53.8997 19.124 53.8997 19.1957V21.2737H56.8311V21.2379ZM49.7753 28.4393V17.5834C49.7753 17.2968 49.8094 17.0102 49.8776 16.6519C49.9457 16.2936 50.0821 16.007 50.2866 15.7562C50.4229 15.577 50.6274 15.4337 50.9001 15.2904C51.1728 15.1471 51.5478 15.0754 51.9568 15.0754H58.9786C59.4898 15.0754 59.9671 15.1471 60.4443 15.2546C60.8874 15.3621 61.2964 15.6129 61.6714 16.0428C61.9781 16.3653 62.2167 16.831 62.3531 17.4043C62.5235 17.9775 62.5917 18.7299 62.5917 19.6973C62.5917 19.9122 62.5917 20.2347 62.5576 20.593C62.5235 20.9512 62.4894 21.3453 62.4213 21.7753C62.3531 22.1694 62.2167 22.5635 62.0804 22.9576C61.944 23.3517 61.7054 23.6383 61.4668 23.8891C61.1601 24.1399 60.8192 24.3549 60.3761 24.4624C59.9671 24.5699 59.558 24.6415 59.2172 24.6415H53.8656V28.511H49.7753V28.4393ZM67.875 25.1073H74.9309C75.2376 25.1073 75.4422 25.0715 75.5103 24.964C75.5785 24.8923 75.6467 24.7848 75.6467 24.6774C75.6467 24.4624 75.5785 24.3191 75.4081 24.2116C75.2376 24.1399 75.0672 24.0683 74.8627 23.9966L69.9543 22.5635C69.5793 22.456 69.2726 22.3127 69.034 22.0977C68.7954 21.8828 68.6249 21.7036 68.4886 21.5245C68.1818 21.0946 68.0114 20.6288 67.9091 20.0914C67.841 19.5539 67.8069 19.0524 67.8069 18.5508C67.8069 18.1208 67.841 17.6909 67.9091 17.1893C67.9773 16.7235 68.2159 16.2578 68.5909 15.8637C68.7954 15.6487 69.0681 15.4695 69.4089 15.2904C69.7498 15.1113 70.1929 15.0396 70.7383 15.0396H79.1235V18.3716H72.6471C72.4085 18.3716 72.2381 18.3716 72.1699 18.4074C72.1017 18.4074 72.0336 18.4433 71.9995 18.4791C71.8631 18.5508 71.7949 18.6941 71.7949 18.8374C71.7949 19.0524 71.8972 19.1957 72.1358 19.3032C72.3744 19.4106 72.613 19.4823 72.8516 19.5539L77.1465 20.7721C77.4192 20.8438 77.7259 20.9512 78.0668 21.1304C78.4077 21.2737 78.6803 21.4887 78.9189 21.7395C79.1235 21.9544 79.2598 22.1694 79.3962 22.4202C79.5325 22.671 79.6007 22.9576 79.6688 23.2084C79.737 23.495 79.7711 23.7458 79.7711 24.0325C79.8052 24.2832 79.8052 24.534 79.8052 24.7848C79.8052 25.179 79.7711 25.6089 79.7029 26.1105C79.6348 26.5762 79.4643 27.042 79.1916 27.4361C79.0212 27.6869 78.8167 27.9019 78.6122 28.0452C78.4077 28.1885 78.2031 28.296 77.9645 28.3676C77.7259 28.4393 77.5214 28.4751 77.2828 28.4751C77.0442 28.4751 76.8397 28.511 76.6352 28.511H67.9091V25.1073H67.875ZM85.8725 22.6352H88.4972L87.3382 19.2673C87.3041 19.2315 87.2701 19.1598 87.2701 19.0882C87.236 19.0165 87.2019 18.9807 87.2019 18.9807C87.1678 18.9807 87.1337 19.0165 87.1337 19.0882C87.0996 19.1598 87.0655 19.2315 87.0655 19.2673L85.8725 22.6352ZM84.2705 16.5444L79.5666 28.4393H83.8955L84.884 25.6805H89.4516L90.4401 28.4393H94.769L90.0651 16.5444C89.9288 16.1861 89.7583 15.8995 89.5197 15.6845C89.3152 15.4696 89.0766 15.2904 88.838 15.1829C88.5994 15.0754 88.3267 15.0038 88.054 14.968C87.7813 14.9321 87.4746 14.9321 87.1678 14.9321C86.6565 14.9321 86.2475 14.968 85.9407 15.0396C85.6339 15.1113 85.3612 15.2188 85.1226 15.3621C84.9181 15.5054 84.7136 15.6845 84.6113 15.8637C84.5091 16.0786 84.3727 16.2936 84.2705 16.5444ZM109.017 26.1821C109.017 26.2896 108.983 26.5046 108.949 26.7554C108.915 27.0062 108.812 27.2928 108.608 27.5436C108.438 27.7944 108.165 28.0452 107.79 28.2602C107.415 28.4751 106.904 28.5826 106.222 28.5826C105.983 28.5826 105.745 28.5826 105.506 28.5468C105.268 28.511 105.029 28.4751 104.79 28.3676C104.552 28.296 104.313 28.1527 104.109 27.9735C103.87 27.7944 103.665 27.5436 103.495 27.257L98.8934 20.4496C98.8593 20.378 98.7912 20.3063 98.723 20.2347C98.6548 20.163 98.5867 20.1272 98.5526 20.1272C98.5185 20.1272 98.4844 20.1272 98.4162 20.163C98.348 20.1989 98.314 20.3063 98.314 20.4855V28.4035H95.144V17.2968C95.144 16.8668 95.2121 16.5086 95.3826 16.1861C95.553 15.8995 95.7575 15.6487 96.0302 15.4695C96.3029 15.2904 96.6097 15.1471 96.9505 15.0754C97.2914 15.0038 97.6322 14.968 98.0072 14.968C98.1776 14.968 98.3821 14.968 98.6207 15.0038C98.8593 15.0396 99.0979 15.0754 99.3365 15.1471C99.5751 15.2188 99.8138 15.3621 100.052 15.5054C100.291 15.6845 100.495 15.8995 100.7 16.1861L105.302 23.0293C105.336 23.1009 105.404 23.1726 105.472 23.2442C105.54 23.3159 105.574 23.3517 105.677 23.3517C105.779 23.3517 105.847 23.3159 105.847 23.2442C105.881 23.1726 105.881 23.1009 105.881 23.0293V15.0754H109.051V26.1821H109.017ZM114.266 28.4393V18.4074H109.733V15.0754H122.89V18.4074H118.357V28.4393H114.266ZM125.753 28.4393C125.481 28.4393 125.208 28.4035 124.969 28.3676C124.697 28.3318 124.458 28.1885 124.219 27.9735C123.913 27.7227 123.776 27.4719 123.708 27.1853C123.674 26.8987 123.64 26.6121 123.64 26.2896V17.1176C123.64 16.8668 123.674 16.616 123.742 16.3294C123.81 16.0786 123.947 15.8278 124.185 15.577C124.424 15.3621 124.697 15.2188 124.969 15.1471C125.242 15.0754 125.515 15.0396 125.719 15.0396H134.854V18.2641H128.582C128.446 18.2641 128.344 18.2641 128.242 18.3C128.139 18.3358 128.037 18.3716 127.969 18.4433C127.867 18.5149 127.798 18.6582 127.798 18.7657C127.764 18.909 127.764 19.0165 127.764 19.0882V20.0914H134.684V22.9934H127.764V24.4266C127.764 24.5699 127.798 24.6774 127.833 24.749C127.867 24.8207 127.901 24.8923 127.969 24.9282C128.071 25.0356 128.173 25.0715 128.344 25.1073C128.48 25.1073 128.617 25.1073 128.753 25.1073H134.957V28.3676H125.753V28.4393ZM149 28.4393H144.91V23.1368H140.308V28.4393H136.218V15.0754H140.308V19.8047H144.91V15.0754H149V28.4393Z" fill="#24242E"/>
<path fill-rule="evenodd" clip-rule="evenodd" d="M12.932 0C10.9957 6.04908 0 16.165 0 21.1889C0 27.3405 5.77447 32.2959 12.932 32.3301C20.0896 32.2959 25.8641 27.3405 25.8641 21.1889C25.8641 16.165 14.8684 6.04908 12.932 0ZM6.53517 21.4281C6.77722 21.223 6.95011 20.9155 6.95011 20.5395C6.95011 19.9244 6.46602 19.4117 5.8782 19.4117C5.29038 19.4117 4.80629 19.9244 4.80629 20.5395C4.80629 21.1547 5.29038 21.6673 5.8782 21.6673C5.98193 21.6673 6.12024 21.6331 6.22398 21.599L8.8173 28.0581C5.8782 26.8962 3.49234 24.5039 3.49234 21.1889C3.49234 19.4459 8.29863 13.3285 9.4397 11.8589C10.5116 10.4919 11.7564 8.88565 12.932 7.17687C14.1077 8.85147 15.3525 10.4577 16.4244 11.8589C17.5654 13.3627 22.3717 19.4459 22.3717 21.1889C22.3717 24.4697 20.0205 26.862 17.1159 28.024L19.7093 21.6673C19.7784 21.7015 19.8821 21.7015 19.9859 21.7015C20.5737 21.7015 21.0578 21.1889 21.0578 20.5737C21.0578 19.9585 20.5737 19.4459 19.9859 19.4459C19.3981 19.4459 18.914 19.9585 18.914 20.5737C18.914 20.9496 19.0869 21.2914 19.3981 21.4964L14.7301 26.1785L13.1395 19.8218C13.5544 19.6851 13.8656 19.2409 13.8656 18.7624C13.8656 18.1472 13.3815 17.6346 12.7937 17.6346C12.2059 17.6346 11.7218 18.1472 11.7218 18.7624C11.7218 19.2409 12.033 19.651 12.448 19.8218L10.892 25.7342L6.53517 21.4281Z" fill="#24242E"/>
</svg>

<svg xmlns="http://www.w3.org/2000/svg" width="149" height="33" fill="#24242e"  fill-rule="evenodd" xmlns:v="https://vecta.io/nano"><path d="M35.664 24.14c.034.107.068.179.136.215.034.036.068.072.102.072s.068-.036.102-.072a.55.55 0 0 0 .136-.215l2.965-9.064h4.397l-4.397 11.358c-.102.287-.239.573-.409.824s-.375.502-.614.681c-.239.215-.545.358-.886.466a4.38 4.38 0 0 1-1.295.179 4.38 4.38 0 0 1-1.295-.179 3.03 3.03 0 0 1-.886-.466c-.238-.179-.443-.43-.614-.681a3.64 3.64 0 0 1-.409-.824L28.3 15.077h4.397l2.966 9.065zm8.215 4.299V15.075h4.09v13.364h-4.09zm12.953-7.201l.75-.036c.239-.036.443-.107.614-.322.204-.251.341-.645.341-1.146 0-.179-.034-.358-.068-.537s-.136-.358-.307-.502-.375-.251-.579-.251c-.239-.036-.443-.036-.682-.036h-2.284c-.17 0-.307.036-.375.072-.102.072-.17.108-.205.215a1.79 1.79 0 0 0-.102.251c0 .072-.034.179-.034.251v2.078h2.931v-.036zm-7.056 7.201V17.583c0-.287.034-.573.102-.931s.204-.645.409-.896c.136-.179.341-.322.614-.466s.648-.215 1.057-.215h7.022a6.61 6.61 0 0 1 1.466.179c.443.107.852.358 1.227.788.307.323.545.788.682 1.361.17.573.239 1.326.239 2.293l-.034.896-.136 1.182c-.068.394-.205.788-.341 1.182s-.375.681-.614.931c-.307.251-.648.466-1.091.573-.409.108-.818.179-1.159.179h-5.352v3.869h-4.09v-.072zm18.1-3.332h7.056c.307 0 .511-.036.579-.143.068-.072.136-.179.136-.287 0-.215-.068-.358-.239-.466l-.545-.215-4.908-1.433c-.375-.108-.682-.251-.92-.466a4.22 4.22 0 0 1-.545-.573c-.307-.43-.477-.896-.58-1.433a12.15 12.15 0 0 1-.102-1.541c0-.43.034-.86.102-1.361.068-.466.307-.931.682-1.326.204-.215.477-.394.818-.573s.784-.251 1.329-.251h8.385v3.332h-6.476c-.239 0-.409 0-.477.036-.068 0-.136.036-.17.072-.136.072-.205.215-.205.358 0 .215.102.358.341.466a5.68 5.68 0 0 0 .716.251l4.295 1.218a4.3 4.3 0 0 1 .92.358c.341.143.614.358.852.609a3 3 0 0 1 .477.681c.136.251.205.537.273.788.068.287.102.537.102.824.034.251.034.502.034.752 0 .394-.034.824-.102 1.326-.068.466-.239.932-.511 1.326a2.39 2.39 0 0 1-.579.609c-.204.143-.409.251-.648.322a2.28 2.28 0 0 1-.682.108c-.239 0-.443.036-.648.036H67.91v-3.404h-.034zm17.998-2.472h2.625l-1.159-3.368a.28.28 0 0 1-.068-.179c-.034-.072-.068-.108-.068-.108-.034 0-.068.036-.068.108-.034.072-.068.143-.068.179l-1.193 3.368zm-1.602-6.091l-4.704 11.895h4.329l.989-2.759h4.568l.989 2.759h4.329l-4.704-11.895c-.136-.358-.307-.645-.545-.86-.204-.215-.443-.394-.682-.502s-.511-.179-.784-.215-.579-.036-.886-.036c-.511 0-.92.036-1.227.107s-.58.179-.818.322c-.205.143-.409.322-.511.502l-.341.681zm24.746 9.638c0 .108-.034.323-.068.573a1.6 1.6 0 0 1-.341.788c-.17.251-.443.502-.818.717s-.886.322-1.568.322c-.239 0-.477 0-.716-.036s-.477-.072-.716-.179c-.238-.072-.477-.215-.681-.394-.239-.179-.444-.43-.614-.716l-4.602-6.807a.94.94 0 0 0-.17-.215c-.068-.072-.136-.108-.17-.108s-.068 0-.136.036-.102.143-.102.322v7.918h-3.17V17.297c0-.43.068-.788.239-1.111.17-.287.375-.537.648-.717a2.68 2.68 0 0 1 .92-.394 5.02 5.02 0 0 1 1.057-.107 3.94 3.94 0 0 1 .614.036l.716.143c.239.072.477.215.716.358.239.179.443.394.648.681l4.602 6.843a.94.94 0 0 0 .17.215c.068.072.102.108.205.108s.17-.036.17-.108c.034-.072.034-.143.034-.215v-7.954h3.17v11.107h-.034zm5.249 2.257V18.407h-4.533v-3.332h13.157v3.332h-4.533v10.032h-4.091zm11.487 0a5.32 5.32 0 0 1-.784-.072c-.272-.036-.511-.179-.75-.394-.306-.251-.443-.502-.511-.788l-.068-.896v-9.172a3.35 3.35 0 0 1 .102-.788c.068-.251.205-.502.443-.752a1.91 1.91 0 0 1 .784-.43 3.12 3.12 0 0 1 .75-.107h9.135v3.224h-6.272c-.136 0-.238 0-.34.036s-.205.072-.273.143c-.102.072-.171.215-.171.322-.034.143-.034.251-.034.323v1.003h6.92v2.902h-6.92v1.433a.73.73 0 0 0 .069.322c.034.072.068.143.136.179.102.107.204.143.375.179h6.613v3.26h-9.204v.072zm23.247 0h-4.09v-5.302h-4.602v5.302h-4.09V15.075h4.09v4.729h4.602v-4.729H149v13.364zM12.932 0C10.996 6.049 0 16.165 0 21.189c0 6.152 5.774 11.107 12.932 11.141 7.158-.034 12.932-4.99 12.932-11.141 0-5.024-10.996-15.14-12.932-21.189zM6.535 21.428c.242-.205.415-.513.415-.889 0-.615-.484-1.128-1.072-1.128s-1.072.513-1.072 1.128.484 1.128 1.072 1.128a1.25 1.25 0 0 0 .346-.068l2.593 6.459c-2.939-1.162-5.325-3.554-5.325-6.869 0-1.743 4.806-7.86 5.947-9.33 1.072-1.367 2.317-2.973 3.492-4.682 1.176 1.675 2.42 3.281 3.492 4.682 1.141 1.504 5.947 7.587 5.947 9.33 0 3.281-2.351 5.673-5.256 6.835l2.593-6.357c.069.034.173.034.277.034.588 0 1.072-.513 1.072-1.128s-.484-1.128-1.072-1.128-1.072.513-1.072 1.128c0 .376.173.718.484.923l-4.668 4.682-1.591-6.357c.415-.137.726-.581.726-1.059 0-.615-.484-1.128-1.072-1.128s-1.072.513-1.072 1.128a1.16 1.16 0 0 0 .726 1.059l-1.556 5.912-4.357-4.306z"/></svg>
